X:5964
T:Gan Ainm
R:Reel
S:
H:
N:
D:Finbarr Dwyer
Z:Adrian Scahill
M:4/4
L:1/8
K:A
A2EA CAEA|A3e GABG|(3ABA EA CABc|dfed ceBe|\
A2ED CEB,E|A,2eA GABG|(3ABA EA cABc|dfed ceA2||\
(3efe ^df ecAc|efec dcdB|eAA2 fAA2|efed cAA2|\
(3efe ^df ecAc|efec dcBc|(3ded ce dcBA|Gfed ceBe||\


